img/newelle.svg

<?xml version="1.0" encoding="UTF-8"?>
<!DOCTYPE svg PUBLIC "-//W3C//DTD SVG 1.1//EN" "http://www.w3.org/Graphics/SVG/1.1/DTD/svg11.dtd">
<svg xmlns="http://www.w3.org/2000/svg" version="1.1" width="128px" height="128px" style="shape-rendering:geometricPrecision; text-rendering:geometricPrecision; image-rendering:optimizeQuality; fill-rule:evenodd; clip-rule:evenodd" xmlns:xlink="http://www.w3.org/1999/xlink">
<g><path style="opacity:0.987" fill="#3c97fe" d="M 89.5,41.5 C 78.8281,41.3335 68.1615,41.5002 57.5,42C 49.1649,44.5049 43.1649,49.6715 39.5,57.5C 31.8261,57.3336 24.1594,57.5003 16.5,58C 15.2089,59.2917 15.2089,60.4583 16.5,61.5C 16.5,62.5 16.5,63.5 16.5,64.5C 23.8333,64.5 31.1667,64.5 38.5,64.5C 38.5,70.1667 38.5,75.8333 38.5,81.5C 29.1667,81.5 19.8333,81.5 10.5,81.5C 10.5,84.5 10.5,87.5 10.5,90.5C 9.88258,90.3893 9.38258,90.056 9,89.5C 8.33333,67.8333 8.33333,46.1667 9,24.5C 11.6113,14.8883 17.7779,9.05495 27.5,7C 43.2209,6.06333 58.8876,6.39666 74.5,8C 81,10.5 85.5,15 88,21.5C 89.3774,28.0764 89.8774,34.7431 89.5,41.5 Z"/></g>
<g><path style="opacity:0.998" fill="#279c66" d="M 89.5,41.5 C 102.262,40.1277 111.429,45.1277 117,56.5C 118.136,68.2659 118.636,80.0992 118.5,92C 118.5,103.005 118.167,113.839 117.5,124.5C 116.527,122.052 116.194,119.385 116.5,116.5C 95.1471,116.764 73.8137,116.431 52.5,115.5C 52.2786,118.279 52.612,120.946 53.5,123.5C 47.3029,121.473 42.8029,117.473 40,111.5C 38.118,104.634 37.2846,97.6338 37.5,90.5C 38.4767,87.7131 38.81,84.7131 38.5,81.5C 38.5,75.8333 38.5,70.1667 38.5,64.5C 38.5,63.1667 38.5,61.8333 38.5,60.5C 39.1098,59.609 39.4431,58.609 39.5,57.5C 43.1649,49.6715 49.1649,44.5049 57.5,42C 68.1615,41.5002 78.8281,41.3335 89.5,41.5 Z"/></g>
<g><path style="opacity:1" fill="#3077c7" d="M 39.5,57.5 C 39.4431,58.609 39.1098,59.609 38.5,60.5C 30.9809,60.175 23.6476,60.5084 16.5,61.5C 15.2089,60.4583 15.2089,59.2917 16.5,58C 24.1594,57.5003 31.8261,57.3336 39.5,57.5 Z"/></g>
<g><path style="opacity:1" fill="#b7d6fb" d="M 38.5,60.5 C 38.5,61.8333 38.5,63.1667 38.5,64.5C 31.1667,64.5 23.8333,64.5 16.5,64.5C 16.5,63.5 16.5,62.5 16.5,61.5C 23.6476,60.5084 30.9809,60.175 38.5,60.5 Z"/></g>
<g><path style="opacity:1" fill="#257b51" d="M 76.5,77.5 C 68.8604,73.3457 61.1937,69.1791 53.5,65C 52.0715,64.4209 50.7382,64.5876 49.5,65.5C 49.1762,62.3198 50.5096,61.1531 53.5,62C 60.3423,65.9216 67.3423,69.5883 74.5,73C 76.0368,74.1096 76.7035,75.6096 76.5,77.5 Z"/></g>
<g><path style="opacity:1" fill="#a0cbb7" d="M 76.5,77.5 C 76.607,79.9032 75.607,81.7365 73.5,83C 67.0087,86.0785 60.6754,89.4118 54.5,93C 52.3258,93.8769 50.6591,93.3769 49.5,91.5C 56.8063,87.5123 64.1396,83.5123 71.5,79.5C 71.1445,78.4777 70.4778,77.811 69.5,77.5C 63.8599,74.6799 58.1932,71.8466 52.5,69C 50.9371,68.2411 49.9371,67.0744 49.5,65.5C 50.7382,64.5876 52.0715,64.4209 53.5,65C 61.1937,69.1791 68.8604,73.3457 76.5,77.5 Z"/></g>
<g><path style="opacity:1" fill="#267b52" d="M 69.5,77.5 C 70.4778,77.811 71.1445,78.4777 71.5,79.5C 64.1396,83.5123 56.8063,87.5123 49.5,91.5C 49.33,90.1779 49.6634,89.0113 50.5,88C 56.8955,84.4721 63.2288,80.9721 69.5,77.5 Z"/></g>
<g><path style="opacity:1" fill="#3075c4" d="M 38.5,81.5 C 38.81,84.7131 38.4767,87.7131 37.5,90.5C 28.5,90.5 19.5,90.5 10.5,90.5C 10.5,87.5 10.5,84.5 10.5,81.5C 19.8333,81.5 29.1667,81.5 38.5,81.5 Z"/></g>
<g><path style="opacity:1" fill="#2c7d55" d="M 102.5,96.5 C 93.5,96.5 84.5,96.5 75.5,96.5C 75.5,95.5 75.5,94.5 75.5,93.5C 84.5,93.5 93.5,93.5 102.5,93.5C 102.5,94.5 102.5,95.5 102.5,96.5 Z"/></g>
<g><path style="opacity:1" fill="#a7d0be" d="M 75.5,96.5 C 84.5,96.5 93.5,96.5 102.5,96.5C 102.5,97.5 102.5,98.5 102.5,99.5C 93.8269,99.6664 85.1603,99.4998 76.5,99C 75.7476,98.3292 75.4142,97.4959 75.5,96.5 Z"/></g>
<g><path style="opacity:1" fill="#1d754c" d="M 117.5,124.5 C 98.6711,125.662 79.6711,125.829 60.5,125C 58.0796,124.71 55.7463,124.21 53.5,123.5C 52.612,120.946 52.2786,118.279 52.5,115.5C 73.8137,116.431 95.1471,116.764 116.5,116.5C 116.194,119.385 116.527,122.052 117.5,124.5 Z"/></g>
</svg>

<svg xmlns="http://www.w3.org/2000/svg" width="128" height="128" style="shape-rendering:geometricPrecision;text-rendering:geometricPrecision;image-rendering:optimizeQuality;fill-rule:evenodd;clip-rule:evenodd"><path fill="#3c97fe" d="M89.5 41.5a513 513 0 0 0-32 .5q-12.502 3.758-18 15.5-11.51-.25-23 .5-1.937 1.938 0 3.5v3h22v17h-28v9q-.926-.165-1.5-1a1057 1057 0 0 1 0-65Q12.917 10.082 27.5 7a290 290 0 0 1 47 1q9.75 3.75 13.5 13.5a76.4 76.4 0 0 1 1.5 20" style="opacity:.987"/><path fill="#279c66" d="M89.5 41.5q19.143-2.058 27.5 15a330 330 0 0 1 1.5 35.5q0 16.508-1 32.5-1.46-3.672-1-8-32.03.396-64-1-.332 4.169 1 8-9.296-3.04-13.5-12a70.9 70.9 0 0 1-2.5-21q1.465-4.18 1-9v-21a5.73 5.73 0 0 0 1-3q5.498-11.742 18-15.5a513 513 0 0 1 32-.5" style="opacity:.998"/><path fill="#3077c7" d="M39.5 57.5a5.73 5.73 0 0 1-1 3q-11.279-.488-22 1-1.937-1.562 0-3.5 11.49-.75 23-.5" style="opacity:1"/><path fill="#b7d6fb" d="M38.5 60.5v4h-22v-3q10.721-1.488 22-1" style="opacity:1"/><path fill="#257b51" d="M76.5 77.5q-11.46-6.23-23-12.5-2.142-.869-4 .5-.485-4.77 4-3.5a313 313 0 0 0 21 11q2.306 1.665 2 4.5" style="opacity:1"/><path fill="#a0cbb7" d="M76.5 77.5q.16 3.605-3 5.5a257 257 0 0 0-19 10q-3.26 1.315-5-1.5 10.96-5.982 22-12-.534-1.533-2-2l-17-8.5q-2.345-1.139-3-3.5 1.858-1.369 4-.5 11.54 6.27 23 12.5" style="opacity:1"/><path fill="#267b52" d="M69.5 77.5q1.466.467 2 2-11.04 6.018-22 12-.255-1.983 1-3.5a13921 13921 0 0 0 19-10.5" style="opacity:1"/><path fill="#3075c4" d="M38.5 81.5q.465 4.82-1 9h-27v-9z" style="opacity:1"/><path fill="#2c7d55" d="M102.5 96.5h-27v-3h27z" style="opacity:1"/><path fill="#a7d0be" d="M75.5 96.5h27v3q-13.01.25-26-.5-1.128-1.005-1-2.5" style="opacity:1"/><path fill="#1d754c" d="M117.5 124.5a544 544 0 0 1-57 .5q-3.63-.435-7-1.5-1.332-3.831-1-8 31.97 1.396 64 1-.46 4.328 1 8" style="opacity:1"/></svg>
